X: 111246
T: Kishkeam Lasses
S: "Johnny O'Leary of Sliabh Luachra" (#184)
Z: B.Black
L: 1/8
M: 12/8
Q: 350
R: slide
K: D
d2f e2d c2e EFG|AGA BAG F2A D3|
dcd e2d cBc EFG|A2F GFE D3 D3 :|
f2d fdc d2f a2f|e2A ABA Bcd ede|
f2a d/e/dc d2f a2f|ede ABc d3 d3|
f2a d2c d2f a2f|e2A ABA Bcd ede|
f2a d/e/dc d2f a2f|ede ABc d3 d3||
